docs/icons/tauri.svg

<svg xmlns="http://www.w3.org/2000/svg" width="130" height="130" viewBox="0 0 130 130" fill="none">
<ellipse cx="46.8267" cy="82.6794" rx="12.2434" ry="12.2294" transform="rotate(180 46.8267 82.6794)" fill="#24C8DB"/>
<path fill-rule="evenodd" clip-rule="evenodd" d="M92.7927 86.8753C87.8519 90.0649 82.3773 92.279 76.6642 93.4305C77.8337 90.0624 78.469 86.445 78.469 82.6794C78.469 81.3135 78.3854 79.9672 78.2231 78.6452C80.6811 77.79 83.0409 76.6418 85.2489 75.2164C90.562 71.7865 94.7706 66.8971 97.3689 61.1357C99.9673 55.3743 100.845 48.9861 99.8962 42.7386C98.9476 36.4911 96.2131 30.6501 92.0213 25.9174C87.8296 21.1847 82.3588 17.7617 76.2665 16.0596C70.1741 14.3575 63.7193 14.4487 57.6776 16.3224C51.6359 18.1961 46.2644 21.7724 42.2084 26.6217C41.6889 27.2429 41.1938 27.8815 40.7238 28.5361C34.4648 29.2307 28.4027 31.0001 22.7966 33.7372C24.6214 27.9021 27.584 22.4547 31.5429 17.7215C37.3149 10.8205 44.9589 5.73111 53.5567 3.06475C62.1545 0.398393 71.3401 0.26851 80.01 2.69071C88.6799 5.11291 96.4652 9.98416 102.43 16.7191C108.396 23.4541 112.287 31.7663 113.637 40.657C114.987 49.5476 113.738 58.6386 110.04 66.8374C106.343 75.0362 100.354 81.9942 92.7927 86.8753ZM23.3533 42.2529L34.8134 43.6589C35.0862 41.4402 35.5839 39.2661 36.2927 37.1679C31.7474 38.2098 27.3856 39.9249 23.3533 42.2529Z" fill="#FFC131"/>
<path fill-rule="evenodd" clip-rule="evenodd" d="M21.3728 43.463C26.3507 40.2494 31.8705 38.0261 37.6301 36.8821C36.328 40.414 35.6171 44.2314 35.6171 48.2148C35.6171 49.4062 35.6807 50.5828 35.8047 51.7414C33.3962 52.5913 31.0833 53.7231 28.9166 55.1219C23.6035 58.5518 19.3949 63.4412 16.7966 69.2026C14.1982 74.9639 13.3206 81.3522 14.2693 87.5997C15.2179 93.8472 17.9524 99.6882 22.1441 104.421C26.3359 109.154 31.8066 112.577 37.899 114.279C43.9914 115.981 50.4462 115.89 56.4879 114.016C62.5296 112.142 67.9011 108.566 71.9571 103.717C72.4792 103.092 72.9767 102.45 73.4488 101.792C79.713 101.087 85.7772 99.3056 91.3832 96.5552C89.5597 102.408 86.5919 107.871 82.6226 112.617C76.8506 119.518 69.2065 124.607 60.6088 127.274C52.011 129.94 42.8253 130.07 34.1555 127.648C25.4856 125.225 17.7003 120.354 11.7351 113.619C5.76993 106.884 1.87856 98.572 0.528593 89.6813C-0.821375 80.7906 0.427483 71.6997 4.12511 63.5009C7.82274 55.302 13.8118 48.3441 21.3728 43.463ZM78.8165 92.9236C78.5049 93.0024 78.1926 93.078 77.8796 93.1503C77.8796 93.1504 77.8795 93.1504 77.8795 93.1504C78.1927 93.078 78.5051 93.0023 78.8165 92.9236Z" fill="#24C8DB"/>

</svg>

<svg xmlns="http://www.w3.org/2000/svg" width="130" height="130" fill="none" xmlns:v="https://vecta.io/nano"><ellipse cx="46.827" cy="82.679" rx="12.243" ry="12.229" transform="rotate(180 46.827 82.679)" fill="#24c8db"/><g fill-rule="evenodd"><path d="M92.793 86.875c-4.941 3.19-10.415 5.404-16.129 6.555 1.169-3.368 1.805-6.986 1.805-10.751 0-1.366-.084-2.712-.246-4.034 2.458-.855 4.818-2.003 7.026-3.429a32.82 32.82 0 0 0 12.12-14.081c2.598-5.761 3.476-12.15 2.527-18.397s-3.683-12.088-7.875-16.821-9.662-8.156-15.755-9.858-12.547-1.611-18.589.263-11.413 5.45-15.469 10.299c-.52.621-1.015 1.26-1.485 1.914-6.259.695-12.321 2.464-17.927 5.201a46.68 46.68 0 0 1 8.746-16.016A46.75 46.75 0 0 1 53.557 3.065a46.8 46.8 0 0 1 26.453-.374 46.75 46.75 0 0 1 22.42 14.028c5.966 6.735 9.857 15.047 11.207 23.938a46.64 46.64 0 0 1-3.597 26.18 46.7 46.7 0 0 1-17.247 20.038zM23.353 42.253l11.46 1.406a32.78 32.78 0 0 1 1.479-6.491 46.79 46.79 0 0 0-12.939 5.085z" fill="#ffc131"/><path d="M21.373 43.463c4.978-3.214 10.498-5.437 16.257-6.581-1.302 3.532-2.013 7.349-2.013 11.333a33.13 33.13 0 0 0 .188 3.527 32.86 32.86 0 0 0-6.888 3.38 32.82 32.82 0 0 0-12.12 14.081c-2.598 5.761-3.476 12.15-2.527 18.397s3.683 12.088 7.875 16.821a32.85 32.85 0 0 0 15.755 9.858c6.092 1.702 12.547 1.611 18.589-.263s11.413-5.45 15.469-10.299c.522-.625 1.02-1.267 1.492-1.925 6.264-.705 12.328-2.486 17.934-5.237-1.823 5.853-4.791 11.316-8.761 16.062-5.772 6.901-13.416 11.99-22.014 14.657s-17.784 2.796-26.453.374a46.76 46.76 0 0 1-22.42-14.029A46.67 46.67 0 0 1 .529 89.681C-.821 80.791.427 71.7 4.125 63.501a46.71 46.71 0 0 1 17.248-20.038zm57.444 49.461l-.937.227.937-.227z" fill="#24c8db"/></g></svg>
